assets/Socks/Flat/socks_flat.svg

<svg width="32" height="32" viewBox="0 0 32 32" fill="none" xmlns="http://www.w3.org/2000/svg">
<path d="M16.9954 3.66334V16.0603L16.4765 16.38C16.5214 17.0038 16.4222 17.63 16.2048 18.2165C15.9875 18.803 15.6471 19.3361 15.2065 19.78L15.274 20.2323L10.4551 25.06L10.0588 24.7335C9.63426 25.1585 9.12772 25.4926 8.56998 25.7157C8.01225 25.9388 7.41498 26.0461 6.81447 26.0311C6.21397 26.0162 6.34229 25.9663 5.79636 25.7157C5.25043 25.4651 4.76117 25.1061 4.35831 24.6606C3.61364 23.7691 3.23465 22.6285 3.29775 21.4686C3.32607 20.948 2.95961 20.8402 3.15508 20.3665C3.39506 19.785 3.75413 19.2539 4.21538 18.81L6.88538 16.14C7.70341 15.3236 8.01399 14.1574 8.01558 13.0017V3.72334C8.00754 3.5025 8.04394 3.2823 8.12263 3.07579C8.20131 2.86929 8.32068 2.6807 8.47364 2.52121C8.6266 2.36172 8.81004 2.23459 9.01307 2.14734C9.21611 2.0601 9.4346 2.01453 9.65558 2.01334H15.3354C15.5529 2.01202 15.7685 2.05372 15.9699 2.13605C16.1712 2.21838 16.3543 2.33971 16.5086 2.49306C16.6629 2.64641 16.7853 2.82875 16.8688 3.02959C16.9524 3.23043 16.9954 3.44581 16.9954 3.66334ZM27.9865 7.64374V20.0287L27.2726 20.3604C27.3175 20.9842 27.2283 21.6104 27.0109 22.1969C26.7936 22.7834 26.4532 23.3165 26.0126 23.7604L26.2567 24.221L21.4462 29.0404L21.1868 28.7688C20.7622 29.1938 20.2557 29.5279 19.698 29.751C19.1402 29.9741 18.5429 30.0814 17.9424 30.0664C17.3419 30.0515 16.7508 29.9145 16.2048 29.664C15.6589 29.4134 15.6768 29.0544 15.274 28.6088C14.5293 27.7174 14.25 27.0083 14.3131 25.8485C14.342 25.3173 13.9554 24.8001 14.1581 24.3182C14.398 23.7479 14.7528 23.227 15.2065 22.7904L17.8765 20.1204C18.6945 19.304 19.0051 18.1379 19.0067 16.9821V7.70374C18.9986 7.48291 19.035 7.2627 19.1137 7.0562C19.1924 6.8497 19.3118 6.66111 19.4647 6.50162C19.6177 6.34213 19.8011 6.21499 20.0042 6.12775C20.2072 6.04051 20.4257 5.99494 20.6467 5.99374H26.3265C26.544 5.99243 26.7596 6.03413 26.961 6.11646C27.1623 6.19879 27.3454 6.32012 27.4997 6.47347C27.6539 6.62682 27.7764 6.80916 27.8599 7.01C27.9435 7.21084 27.9865 7.42622 27.9865 7.64374Z" fill="#00F397"/>
<path d="M8.01636 4.00708H17.0054V4.99463H8.01636V4.00708ZM18.9957 7.9953H27.9848V9.00781H18.9957V7.9953ZM17.0054 5.99371H8.01636V7.01821H17.0054V5.99371ZM19.0074 10.0078H27.9848V10.9986H19.0074V10.0078Z" fill="#FFF478"/>
<path d="M16.996 16.0282H11.9896C11.76 16.0282 11.6796 16.1523 11.6952 16.3047C11.6961 16.3128 11.6966 16.3311 11.6974 16.3586C11.7113 16.8507 11.8086 20.2734 15.2264 20.2734C15.2716 20.2292 15.3178 20.1845 15.3648 20.139C16.1396 19.3893 17.1286 18.4323 16.996 16.0282ZM27.9871 20.0086H22.9806C22.7511 20.0086 22.6707 20.1328 22.6863 20.2851C22.6872 20.2932 22.6877 20.3115 22.6885 20.3391C22.7024 20.8311 22.7997 24.2538 26.2175 24.2538C26.2627 24.2096 26.3089 24.1649 26.3559 24.1194C27.1307 23.3696 28.1196 22.4127 27.9871 20.0086ZM8.35878 21.1655C6.66444 19.7491 4.04605 20.0504 3.158 20.3206C2.38363 22.2844 3.02462 24.0487 3.82091 25.0043C4.56546 25.8979 5.67877 26.5156 7.17175 26.5156C8.8866 26.5156 9.86707 25.6562 10.4803 25.043C10.4803 24.3535 10.0531 22.5819 8.35878 21.1655ZM14.1491 24.301C15.0371 24.0308 17.6555 23.7295 19.3499 25.1459C21.0442 26.5623 21.4714 28.3339 21.4714 29.0234C20.8582 29.6367 19.8777 30.496 18.1628 30.496C16.6699 30.496 15.5566 29.8783 14.812 28.9847C14.0157 28.0291 13.3747 26.2648 14.1491 24.301Z" fill="#5092FF"/>
</svg>

<svg xmlns="http://www.w3.org/2000/svg" width="32" height="32" fill="none"><path fill="#00F397" d="M16.995 3.663V16.06l-.518.32a4.386 4.386 0 0 1-.272 1.837 4.379 4.379 0 0 1-.998 1.563l.067.452-4.819 4.828-.396-.326a4.43 4.43 0 0 1-3.245 1.297c-.6-.015-.472-.065-1.018-.315a4.431 4.431 0 0 1-1.438-1.055 4.59 4.59 0 0 1-1.06-3.192c.028-.521-.338-.629-.143-1.103a4.59 4.59 0 0 1 1.06-1.556l2.67-2.67c.818-.816 1.129-1.983 1.13-3.138V3.723a1.65 1.65 0 0 1 1.64-1.71h5.68a1.65 1.65 0 0 1 1.66 1.65Zm10.991 3.98V20.03l-.713.331a4.38 4.38 0 0 1-1.26 3.4l.244.461-4.81 4.82-.26-.272a4.43 4.43 0 0 1-4.982.895c-.546-.25-.528-.61-.931-1.055-.745-.892-1.024-1.6-.96-2.76.028-.532-.359-1.049-.156-1.53a4.59 4.59 0 0 1 1.049-1.529l2.67-2.67c.818-.816 1.128-1.982 1.13-3.138V7.704a1.649 1.649 0 0 1 1.64-1.71h5.68a1.65 1.65 0 0 1 1.66 1.65Z"/><path fill="#FFF478" d="M8.016 4.007h8.99v.988h-8.99v-.988Zm10.98 3.988h8.989v1.013h-8.99V7.995Zm-1.99-2.001h-8.99v1.024h8.99V5.994Zm2.001 4.014h8.978v.99h-8.978v-.99Z"/><path fill="#5092FF" d="M16.996 16.028H11.99c-.23 0-.31.124-.295.277.001.008.002.026.002.054.014.492.112 3.914 3.53 3.914l.138-.134c.775-.75 1.764-1.707 1.631-4.11Zm10.991 3.98h-5.006c-.23 0-.31.125-.295.277l.003.054c.013.492.11 3.915 3.529 3.915.045-.044.09-.09.138-.135.775-.75 1.764-1.706 1.631-4.11ZM8.36 21.167c-1.695-1.417-4.313-1.116-5.201-.845-.774 1.963-.133 3.728.663 4.683.744.894 1.858 1.512 3.35 1.512 1.716 0 2.696-.86 3.31-1.473 0-.69-.428-2.461-2.122-3.877Zm5.79 3.135c.888-.27 3.507-.571 5.2.845 1.695 1.416 2.122 3.188 2.122 3.877-.613.614-1.593 1.473-3.308 1.473-1.493 0-2.606-.618-3.351-1.511-.796-.956-1.437-2.72-.663-4.684Z"/></svg>
